docs/img/svg/mail.svg

<svg width="20" height="15" viewBox="0 0 20 15" fill="none" xmlns="http://www.w3.org/2000/svg">
<path d="M18.611 0H0.639C0.469544 0.000198607 0.30709 0.0676198 0.18729 0.187467C0.0674898 0.307313 0.000132323 0.469795 0 0.63925V1.92525C0 1.9845 0.06425 2.0525 0.11675 2.08L9.56325 7.47575C9.58745 7.48958 9.61488 7.49674 9.64275 7.4965C9.67124 7.49658 9.69922 7.48898 9.72375 7.4745L18.8848 2.08525C18.9363 2.0565 19.0728 1.9805 19.124 1.9455C19.186 1.90325 19.25 1.865 19.25 1.78925V0.639C19.2498 0.469588 19.1824 0.307171 19.0626 0.187378C18.9428 0.0675857 18.7804 0.000198492 18.611 0Z" fill="#84AACB"/>
<path d="M19.1702 3.86416C19.1456 3.85014 19.1177 3.84285 19.0894 3.84302C19.0611 3.8432 19.0333 3.85083 19.0089 3.86516L13.8247 6.91541C13.804 6.92745 13.7863 6.94399 13.7729 6.96379C13.7595 6.98359 13.7508 7.00616 13.7473 7.02982C13.7438 7.05347 13.7457 7.07761 13.7528 7.10043C13.7599 7.12326 13.7721 7.14418 13.7884 7.16166L18.9734 12.7509C18.9883 12.7671 19.0063 12.7799 19.0264 12.7887C19.0465 12.7975 19.0682 12.802 19.0902 12.8019C19.1325 12.8018 19.1731 12.785 19.2031 12.7551C19.233 12.7251 19.2499 12.6845 19.2499 12.6422V4.00291C19.25 3.97481 19.2427 3.94718 19.2287 3.92281C19.2147 3.89845 19.1945 3.87822 19.1702 3.86416Z" fill="#84AACB"/>
<path d="M12.3307 7.93965C12.3061 7.91284 12.273 7.89529 12.237 7.88992C12.201 7.88456 12.1643 7.89169 12.1329 7.91015L10.0549 9.1329C9.9332 9.20324 9.79525 9.24071 9.65464 9.24164C9.51403 9.24256 9.3756 9.20689 9.25295 9.13815L7.4242 8.0934C7.39467 8.07658 7.36056 8.0696 7.32681 8.07347C7.29305 8.07733 7.2614 8.09184 7.23645 8.11489L0.291946 14.5564C0.27374 14.5734 0.259762 14.5945 0.251125 14.6178C0.242489 14.6412 0.239433 14.6663 0.242201 14.691C0.244969 14.7158 0.253485 14.7396 0.267069 14.7605C0.280654 14.7814 0.298932 14.7988 0.320445 14.8114C0.428445 14.8749 0.532696 14.9051 0.638696 14.9051H18.4269C18.4581 14.9052 18.4885 14.8961 18.5145 14.879C18.5405 14.8619 18.5609 14.8375 18.5732 14.8089C18.5857 14.7804 18.5895 14.749 18.5843 14.7183C18.579 14.6877 18.5649 14.6593 18.5437 14.6366L12.3307 7.93965Z" fill="#84AACB"/>
<path d="M5.7085 7.35305C5.7269 7.33605 5.74103 7.31496 5.74977 7.29148C5.75851 7.268 5.7616 7.2428 5.75881 7.21791C5.75601 7.19301 5.74739 7.16913 5.73366 7.14818C5.71993 7.12723 5.70146 7.1098 5.67975 7.0973L0.238253 3.9893C0.213968 3.97551 0.186489 3.96834 0.158564 3.96851C0.130639 3.96867 0.103246 3.97617 0.0791258 3.99024C0.0550052 4.00431 0.035002 4.02447 0.0211167 4.0487C0.00723134 4.07293 -4.93733e-05 4.10038 2.54918e-06 4.1283V12.2833C-0.000173643 12.3144 0.0087872 12.345 0.0257758 12.3711C0.0427645 12.3972 0.0670351 12.4177 0.0955838 12.4302C0.124133 12.4426 0.155706 12.4464 0.186396 12.4411C0.217086 12.4358 0.245546 12.4216 0.268253 12.4003L5.7085 7.35305Z" fill="#84AACB"/>
</svg>

<svg width="20" height="15" viewBox="0 0 20 15" fill="none" xmlns="http://www.w3.org/2000/svg"><path d="M18.611 0H.639A.64.64 0 000 .64v1.285c0 .06.064.128.117.155l9.446 5.396a.158.158 0 00.16-.001l9.162-5.39c.051-.028.188-.105.239-.14.062-.042.126-.08.126-.156V.64a.64.64 0 00-.639-.64zm.559 3.864a.161.161 0 00-.161.001l-5.184 3.05a.16.16 0 00-.037.247l5.185 5.589a.158.158 0 00.117.05.16.16 0 00.16-.159v-8.64a.16.16 0 00-.08-.138zM12.33 7.94a.159.159 0 00-.197-.03l-2.078 1.223a.81.81 0 01-.802.005L7.424 8.093a.16.16 0 00-.188.022L.292 14.556a.16.16 0 00.028.255.618.618 0 00.319.094h17.788a.158.158 0 00.146-.096.159.159 0 00-.03-.172L12.332 7.94zm-6.622-.587a.16.16 0 00-.028-.256L.238 3.99A.16.16 0 000 4.13v8.154a.16.16 0 00.268.117l5.44-5.047z" fill="#84AACB"/></svg>
